src/assets/icons/logo.svg

<svg xmlns="http://www.w3.org/2000/svg" width="360" height="360" fill="none" viewBox="0 0 360 360"><circle cx="180" cy="180" r="180" fill="#000"/><path fill="#fff" stroke="#fff" stroke-width=".612" d="M45 199.898v-17.143l91.224-42.245v20.204l-67.959 30.613 67.959 30.612v20.204L45 199.898ZM315.306 199.898v-17.143l-91.224-42.245v20.204l67.959 30.613-67.959 30.612v20.204l91.224-42.245Z"/><path fill="#fff" d="M170.51 250.714h-18.89l40.931-140.204h19.592L170.51 250.714Z"/><path stroke="#fff" stroke-width=".612" d="M151.531 250.714h18.979l41.633-140.204h-19.592l-41.02 140.51"/></svg>

<svg width="360" height="360" viewBox="0 0 360 360" fill="none" xmlns="http://www.w3.org/2000/svg">
<circle cx="180" cy="180" r="180" fill="black"/>
<path d="M45 199.898V182.755L136.224 140.51V160.714L68.2653 191.327L136.224 221.939V242.143L45 199.898Z" fill="white" stroke="white" stroke-width="0.612245"/>
<path d="M315.306 199.898V182.755L224.082 140.51V160.714L292.041 191.327L224.082 221.939V242.143L315.306 199.898Z" fill="white" stroke="white" stroke-width="0.612245"/>
<path d="M170.51 250.714H151.62L192.551 110.51H212.143L170.51 250.714Z" fill="white"/>
<path d="M151.531 250.714H170.51L212.143 110.51H192.551L151.531 251.02" stroke="white" stroke-width="0.612245"/>
</svg>
